symbols/web/ad_units/materialsymbolsrounded/ad_units_wght300grad200_40px.svg

<svg xmlns="http://www.w3.org/2000/svg" height="40" width="40"><path d="M14.667 13.167q-.625 0-1.042-.417-.417-.417-.417-1t.417-1q.417-.417 1.042-.417h10.708q.583 0 1 .417.417.417.417 1t-.417 1q-.417.417-1 .417Zm-3 25.291q-1.417 0-2.375-.979-.959-.979-.959-2.354V4.875q0-1.375.959-2.354.958-.979 2.375-.979h16.666q1.417 0 2.375.979.959.979.959 2.354v30.25q0 1.375-.959 2.354-.958.979-2.375.979Zm-.5-7.25h17.666V8.792H11.167Zm0 2.834v1.083q0 .208.145.354.146.146.355.146h16.666q.209 0 .355-.146.145-.146.145-.354v-1.083Zm0-28.084h17.666V4.875q0-.208-.145-.354-.146-.146-.355-.146H11.667q-.209 0-.355.146-.145.146-.145.354Zm0-1.583v1.583V4.375Zm0 31.25v-1.583V35.625Z"/></svg>

<svg xmlns="http://www.w3.org/2000/svg" height="40" width="40"><path d="M14.667 13.167Q14.042 13.167 13.625 12.75Q13.208 12.333 13.208 11.75Q13.208 11.167 13.625 10.75Q14.042 10.333 14.667 10.333H25.375Q25.958 10.333 26.375 10.75Q26.792 11.167 26.792 11.75Q26.792 12.333 26.375 12.75Q25.958 13.167 25.375 13.167ZM11.667 38.458Q10.25 38.458 9.292 37.479Q8.333 36.5 8.333 35.125V4.875Q8.333 3.5 9.292 2.521Q10.25 1.542 11.667 1.542H28.333Q29.75 1.542 30.708 2.521Q31.667 3.5 31.667 4.875V35.125Q31.667 36.5 30.708 37.479Q29.75 38.458 28.333 38.458ZM11.167 31.208H28.833V8.792H11.167ZM11.167 34.042V35.125Q11.167 35.333 11.312 35.479Q11.458 35.625 11.667 35.625H28.333Q28.542 35.625 28.688 35.479Q28.833 35.333 28.833 35.125V34.042ZM11.167 5.958H28.833V4.875Q28.833 4.667 28.688 4.521Q28.542 4.375 28.333 4.375H11.667Q11.458 4.375 11.312 4.521Q11.167 4.667 11.167 4.875ZM11.167 4.375Q11.167 4.375 11.167 4.521Q11.167 4.667 11.167 4.875V5.958V4.875Q11.167 4.667 11.167 4.521Q11.167 4.375 11.167 4.375ZM11.167 35.625Q11.167 35.625 11.167 35.479Q11.167 35.333 11.167 35.125V34.042V35.125Q11.167 35.333 11.167 35.479Q11.167 35.625 11.167 35.625Z"/></svg>
